exports/global-plastic-fate_v1_850x600.svg

<svg xmlns="http://www.w3.org/2000/svg" version="1.1" style="background-color:#fff;-webkit-font-smoothing:antialiased" width="850" height="600" font-family="'Helvetica Neue',Helvetica,Arial,sans-serif" font-size="18" text-rendering="optimizeLegibility"><g class="ChartTab"><g class="HeaderView"><g opacity=".8" transform="matrix(.27 0 0 .27 778 15)"><a xmlns:xlink="http://www.w3.org/1999/xlink" xlink:href="https://ourworldindata.org" target="_blank"><g><path fill="#1B2543" d="M0 0h211.2v130.1H0z"/><path fill="#E63912" d="M0 112.2h211.2v17.9H0z"/><g><path fill="none" d="M1.2 12.3h210.2v99.2H1.2z"/><path fill="#FFF" d="M37.8 32.2c0 12.7-7.7 19.4-17.1 19.4-9.7 0-16.6-7.5-16.6-18.7 0-11.7 7.3-19.3 17.1-19.3 10.1.1 16.6 7.7 16.6 18.6zm-28.6.6c0 7.9 4.3 14.9 11.8 14.9 7.5 0 11.8-6.9 11.8-15.3 0-7.3-3.8-14.9-11.8-14.9-7.9 0-11.8 7.3-11.8 15.3zM62.7 43.8c0 2.7.1 5.1.2 7.2h-4.3l-.3-4.3h-.1c-1.3 2.1-4 4.9-8.8 4.9-4.2 0-9.1-2.3-9.1-11.6V24.6h4.8v14.6c0 5 1.5 8.4 5.9 8.4 3.2 0 5.5-2.2 6.3-4.4.3-.7.4-1.6.4-2.5V24.6h4.8v19.2zM67.3 32.8c0-3.1-.1-5.8-.2-8.2h4.2l.2 5.2h.2c1.2-3.5 4.1-5.8 7.3-5.8.5 0 .9.1 1.4.2v4.5c-.5-.1-1-.2-1.6-.2-3.4 0-5.8 2.6-6.5 6.2-.1.7-.2 1.4-.2 2.2V51h-4.8V32.8zM95.4 51L86 14.2h5l4.4 18.6c1.1 4.6 2.1 9.2 2.7 12.7h.1c.6-3.7 1.8-8 3-12.8l4.9-18.5h5l4.5 18.7c1 4.4 2 8.7 2.6 12.6h.1c.8-4 1.8-8.1 3-12.7l4.9-18.5h4.9L120.6 51h-5L111 31.9c-1.1-4.7-1.9-8.3-2.4-12h-.1c-.7 3.7-1.5 7.3-2.8 12L100.4 51h-5zM154.9 37.6c0 9.8-6.8 14-13.2 14-7.2 0-12.7-5.2-12.7-13.6 0-8.8 5.8-14 13.1-14 7.7 0 12.8 5.5 12.8 13.6zm-21 .3c0 5.8 3.3 10.1 8 10.1 4.6 0 8-4.3 8-10.3 0-4.5-2.2-10.1-7.9-10.1s-8.1 5.2-8.1 10.3zM158.2 32.8c0-3.1-.1-5.8-.2-8.2h4.2l.2 5.2h.2c1.2-3.5 4.1-5.8 7.3-5.8.5 0 .9.1 1.4.2v4.5c-.5-.1-1-.2-1.6-.2-3.4 0-5.8 2.6-6.5 6.2-.1.7-.2 1.4-.2 2.2V51h-4.8V32.8zM173.5 12.3h4.8V51h-4.8V12.3zM206.5 12.3v31.9c0 2.3.1 5 .2 6.8h-4.3l-.2-4.6h-.2c-1.5 2.9-4.7 5.2-9 5.2-6.4 0-11.3-5.4-11.3-13.4-.1-8.8 5.4-14.2 11.9-14.2 4 0 6.8 1.9 8 4h.1V12.3h4.8zm-4.8 23.1c0-.6-.1-1.4-.2-2a7 7 0 00-6.9-5.6c-5 0-7.9 4.4-7.9 10.2 0 5.3 2.6 9.8 7.8 9.8 3.2 0 6.2-2.1 7.1-5.7.2-.7.2-1.3.2-2.1v-4.6zM42.8 64c.1 1.6-1.1 2.9-3.1 2.9-1.7 0-2.9-1.3-2.9-2.9 0-1.7 1.3-3 3-3 1.9 0 3 1.3 3 3zm-5.4 33.8V71.4h4.8v26.4h-4.8zM47.5 78.6c0-2.7-.1-5-.2-7.1h4.3l.3 4.4h.1c1.3-2.5 4.4-5 8.8-5 3.7 0 9.4 2.2 9.4 11.2v15.8h-4.8V82.6c0-4.3-1.6-7.8-6.1-7.8-3.2 0-5.6 2.2-6.5 4.9-.2.6-.3 1.4-.3 2.2v15.9h-4.8V78.6zM84 61.6c2.9-.4 6.3-.8 10.1-.8 6.8 0 11.7 1.6 14.9 4.6 3.3 3 5.2 7.3 5.2 13.2 0 6-1.9 10.9-5.3 14.3-3.4 3.4-9.1 5.3-16.3 5.3-3.4 0-6.2-.2-8.6-.4V61.6zm4.8 32.5c1.2.2 3 .3 4.8.3 10.2 0 15.7-5.7 15.7-15.6.1-8.7-4.9-14.2-14.9-14.2-2.5 0-4.3.2-5.6.5v29zM132.1 97.8l-.4-3.3h-.2a9.79 9.79 0 01-8.1 3.9c-5.4 0-8.1-3.8-8.1-7.6 0-6.4 5.7-9.9 15.9-9.8v-.5c0-2.2-.6-6.1-6-6.1-2.5 0-5 .8-6.9 2l-1.1-3.2c2.2-1.4 5.4-2.3 8.7-2.3 8.1 0 10.1 5.5 10.1 10.8v9.9c0 2.3.1 4.5.4 6.3h-4.3zm-.7-13.4c-5.3-.1-11.2.8-11.2 5.9 0 3.1 2.1 4.6 4.5 4.6 3.4 0 5.6-2.2 6.4-4.4.2-.5.3-1 .3-1.5v-4.6zM146.6 63.9v7.6h6.9v3.7h-6.9v14.2c0 3.3.9 5.1 3.6 5.1 1.3 0 2.2-.2 2.8-.3l.2 3.6c-.9.4-2.4.7-4.3.7-2.2 0-4-.7-5.2-2-1.4-1.4-1.9-3.8-1.9-6.9V75.1h-4.1v-3.7h4.1v-6.3l4.8-1.2zM171.4 97.8l-.4-3.3h-.2a9.79 9.79 0 01-8.1 3.9c-5.4 0-8.1-3.8-8.1-7.6 0-6.4 5.7-9.9 15.9-9.8v-.5c0-2.2-.6-6.1-6-6.1-2.5 0-5 .8-6.9 2l-1.1-3.2c2.2-1.4 5.4-2.3 8.7-2.3 8.1 0 10.1 5.5 10.1 10.8v9.9c0 2.3.1 4.5.4 6.3h-4.3zm-.7-13.4c-5.3-.1-11.2.8-11.2 5.9 0 3.1 2.1 4.6 4.5 4.6 3.4 0 5.6-2.2 6.4-4.4.2-.5.3-1 .3-1.5v-4.6z"/></g></g></a></g><a href="https://ourworldindata.org/grapher/global-plastic-fate" target="_blank"><text font-size="25.2" x="15" y="35.2" fill="#555"><tspan x="15" y="35.16">Global plastic waste by disposal</tspan></text></a><text font-size="14.4" x="15" y="53.7" fill="#666"><tspan x="15" y="53.72">Estimated share of global plastic waste by disposal method.</tspan></text></g><g class="StackedArea"><defs><clipPath id="a"><path d="M61.63 0h820v959.8h-820z"/></clipPath></defs><g class="AxisBoxView"><g class="HorizontalAxis" fill="#666" text-anchor="middle" font-size="16.2"><text x="61.6" y="556.5">1980</text><text x="157.5" y="556.5">1985</text><text x="253.4" y="556.5">1990</text><text x="349.3" y="556.5">1995</text><text x="445.2" y="556.5">2000</text><text x="541.1" y="556.5">2005</text><text x="637" y="556.5">2010</text><text x="732.9" y="556.5">2015</text></g><g class="VerticalAxis" fill="#666" dominant-baseline="middle" text-anchor="end" font-size="16.2"><text x="56.63" y="535.3">0%</text><text x="56.63" y="443.6">20%</text><text x="56.63" y="351.8">40%</text><text x="56.63" y="260.1">60%</text><text x="56.63" y="168.3">80%</text><text x="56.63" y="76.6">100%</text></g><g class="AxisGridLines"><path stroke="#ccc" d="M61.63 535.3H732.9"/><path stroke="#ddd" stroke-dasharray="3,2" d="M61.63 443.6H732.9M61.63 351.8H732.9M61.63 260.1H732.9M61.63 168.3H732.9M61.63 76.6H732.9"/></g></g><g clip-path="url(#a)"><g class="HeightedLegend clickable"><g class="legendMark"><text font-size="13.5" x="737.9" y="125.4" fill="#2a939b"><tspan x="737.9" y="125.35">Recycled</tspan></text></g><g class="legendMark"><text font-size="13.5" x="737.9" y="228.6" fill="#e6332e"><tspan x="737.9" y="228.55">Incinerated</tspan></text></g><g class="legendMark"><text font-size="13.5" x="737.9" y="413.3" fill="#818282"><tspan x="737.9" y="413.25">Discarded</tspan></text></g></g><g class="Areas"><path d="M61.6 76.6l19.2 7.8 19.2 3.2 19.2 3.2 19.2 3.2 19.1 3.2 19.2 3.3 19.2 3.2 19.2 5.9 19.1 6.4 19.2 6.5 19.2 6.4 19.2 6.4 19.2 6.4 19.1 6.5 19.2 6.4 19.2 6.4 19.2 6.4 19.2 6.4 19.1 6.5 19.2 6.4 19.2 6.4 19.2 6.4 19.2 6.5 19.1 6.4 19.2 6.4 19.2 6.4 19.2 6.4 19.2 6.5 19.1 6.4 19.2 6.4 19.2 6.4 19.2 6.4 19.1 6.5 19.2 6.4 19.2 6.4v252.3H61.63" fill="#818282" fill-opacity=".7" class="Discarded_0-area"/><path d="M61.6 76.6h134.3l19.2 2.8 19.1 3.2 19.2 3.2 19.2 3.2 19.2 3.2 19.2 3.2 19.1 3.2 19.2 3.2 19.2 3.2 19.2 3.3 19.2 3.2 19.1 3.2 19.2 3.2 19.2 3.2 19.2 3.2 19.2 3.2 19.1 3.2 19.2 3.2 19.2 3.2 19.2 3.3 19.2 3.2 19.1 3.2L637 150l19.2 3.2 19.2 3.2 19.1 3.2 19.2 3.2 19.2 3.2v117l-19.2-6.4-19.2-6.4-19.1-6.5-19.2-6.4-19.2-6.4-19.2-6.4-19.1-6.4-19.2-6.5-19.2-6.4-19.2-6.4-19.2-6.4-19.1-6.4-19.2-6.5-19.2-6.4-19.2-6.4-19.2-6.4-19.1-6.5-19.2-6.4-19.2-6.4-19.2-6.4-19.2-6.4-19.1-6.5-19.2-6.4-19.2-6.4-19.2-6.4-19.2-6.5-19.1-6.4-19.2-5.9-19.2-3.2-19.2-3.3-19.1-3.2-19.2-3.2-19.2-3.2-19.2-3.2-19.2-7.8" fill="#e6332e" fill-opacity=".7" class="Incinerated_0-area"/><path d="M61.6 76.6H732.9V166l-19.2-3.2-19.2-3.2-19.1-3.2-19.2-3.2L637 150l-19.2-3.2-19.1-3.2-19.2-3.2-19.2-3.3-19.2-3.2-19.2-3.2-19.1-3.2-19.2-3.2-19.2-3.2-19.2-3.2-19.2-3.2-19.1-3.2-19.2-3.2-19.2-3.3-19.2-3.2-19.2-3.2-19.1-3.2-19.2-3.2-19.2-3.2-19.2-3.2-19.2-3.2-19.1-3.2-19.2-2.8H61.6" fill="#2a939b" fill-opacity=".7" class="Recycled_0-area"/><path stroke-linecap="round" d="M61.6 76.6l19.2 7.8 19.2 3.2 19.2 3.2 19.2 3.2 19.1 3.2 19.2 3.3 19.2 3.2 19.2 5.9 19.1 6.4 19.2 6.5 19.2 6.4 19.2 6.4 19.2 6.4 19.1 6.5 19.2 6.4 19.2 6.4 19.2 6.4 19.2 6.4 19.1 6.5 19.2 6.4 19.2 6.4 19.2 6.4 19.2 6.5 19.1 6.4 19.2 6.4 19.2 6.4 19.2 6.4 19.2 6.5 19.1 6.4 19.2 6.4 19.2 6.4 19.2 6.4 19.1 6.5 19.2 6.4 19.2 6.4" stroke="#6C6D6D" stroke-opacity=".7" stroke-width=".5" fill="none" class="Discarded_0-border"/><path stroke-linecap="round" d="M61.6 76.6h134.3l19.2 2.8 19.1 3.2 19.2 3.2 19.2 3.2 19.2 3.2 19.2 3.2 19.1 3.2 19.2 3.2 19.2 3.2 19.2 3.3 19.2 3.2 19.1 3.2 19.2 3.2 19.2 3.2 19.2 3.2 19.2 3.2 19.1 3.2 19.2 3.2 19.2 3.2 19.2 3.3 19.2 3.2 19.1 3.2L637 150l19.2 3.2 19.2 3.2 19.1 3.2 19.2 3.2 19.2 3.2" stroke="#C02B26" stroke-opacity=".7" stroke-width=".5" fill="none" class="Incinerated_0-border"/><path stroke-linecap="round" d="M61.6 76.6H732.9" stroke="#237B82" stroke-opacity=".7" stroke-width=".5" fill="none" class="Recycled_0-border"/></g></g></g><g class="SourcesFooter" fill="#777"><g class="clickable" fill="#777"><text font-size="12.6" x="15" y="581.6"><tspan x="15" y="581.58">Source: Geyer et al. (2017)</tspan></text></g><text font-size="12.6" x="775.4" y="581.6"><tspan x="775.4" y="581.58"><a class="cclogo" href="http://creativecommons.org/licenses/by-sa/4.0/deed.en_US" target="_blank" fill="#777">CC BY-SA</a></tspan></text></g></g></svg>

<svg xmlns="http://www.w3.org/2000/svg" version="1.1" style="font-family: 'Helvetica Neue', Helvetica, Arial, sans-serif; font-size: 18px; background-color: white; text-rendering: optimizeLegibility; -webkit-font-smoothing: antialiased;" width="850" height="600"><g class="ChartTab"><g class="HeaderView"><g opacity="0.8" transform="translate(778, 15) scale(0.27)"><a xmlns:xlink="http://www.w3.org/1999/xlink" xlink:href="https://ourworldindata.org" target="_blank"><g><rect x="0" y="0" fill="#1B2543" width="211.2" height="130.1"/><rect x="0" y="112.2" fill="#E63912" width="211.2" height="17.9"/><g><rect x="1.2" y="12.3" fill="none" width="210.2" height="99.2"/><path fill="#FFFFFF" d="M37.8,32.2c0,12.7-7.7,19.4-17.1,19.4c-9.7,0-16.6-7.5-16.6-18.7c0-11.7,7.3-19.3,17.1-19.3 C31.3,13.7,37.8,21.3,37.8,32.2z M9.2,32.8c0,7.9,4.3,14.9,11.8,14.9c7.5,0,11.8-6.9,11.8-15.3c0-7.3-3.8-14.9-11.8-14.9 C13.1,17.5,9.2,24.8,9.2,32.8z"/><path fill="#FFFFFF" d="M62.7,43.8c0,2.7,0.1,5.1,0.2,7.2h-4.3l-0.3-4.3h-0.1c-1.3,2.1-4,4.9-8.8,4.9c-4.2,0-9.1-2.3-9.1-11.6 V24.6h4.8v14.6c0,5,1.5,8.4,5.9,8.4c3.2,0,5.5-2.2,6.3-4.4c0.3-0.7,0.4-1.6,0.4-2.5V24.6h4.8V43.8z"/><path fill="#FFFFFF" d="M67.3,32.8c0-3.1-0.1-5.8-0.2-8.2h4.2l0.2,5.2h0.2c1.2-3.5,4.1-5.8,7.3-5.8c0.5,0,0.9,0.1,1.4,0.2v4.5 c-0.5-0.1-1-0.2-1.6-0.2c-3.4,0-5.8,2.6-6.5,6.2c-0.1,0.7-0.2,1.4-0.2,2.2V51h-4.8V32.8z"/><path fill="#FFFFFF" d="M95.4,51l-9.4-36.8h5l4.4,18.6c1.1,4.6,2.1,9.2,2.7,12.7h0.1c0.6-3.7,1.8-8,3-12.8l4.9-18.5h5l4.5,18.7 c1,4.4,2,8.7,2.6,12.6h0.1c0.8-4,1.8-8.1,3-12.7l4.9-18.5h4.9L120.6,51h-5L111,31.9c-1.1-4.7-1.9-8.3-2.4-12h-0.1 c-0.7,3.7-1.5,7.3-2.8,12L100.4,51H95.4z"/><path fill="#FFFFFF" d="M154.9,37.6c0,9.8-6.8,14-13.2,14c-7.2,0-12.7-5.2-12.7-13.6c0-8.8,5.8-14,13.1-14 C149.8,24,154.9,29.5,154.9,37.6z M133.9,37.9c0,5.8,3.3,10.1,8,10.1c4.6,0,8-4.3,8-10.3c0-4.5-2.2-10.1-7.9-10.1 C136.3,27.6,133.9,32.8,133.9,37.9z"/><path fill="#FFFFFF" d="M158.2,32.8c0-3.1-0.1-5.8-0.2-8.2h4.2l0.2,5.2h0.2c1.2-3.5,4.1-5.8,7.3-5.8c0.5,0,0.9,0.1,1.4,0.2v4.5 c-0.5-0.1-1-0.2-1.6-0.2c-3.4,0-5.8,2.6-6.5,6.2c-0.1,0.7-0.2,1.4-0.2,2.2V51h-4.8V32.8z"/><path fill="#FFFFFF" d="M173.5,12.3h4.8V51h-4.8V12.3z"/><path fill="#FFFFFF" d="M206.5,12.3v31.9c0,2.3,0.1,5,0.2,6.8h-4.3l-0.2-4.6H202c-1.5,2.9-4.7,5.2-9,5.2 c-6.4,0-11.3-5.4-11.3-13.4c-0.1-8.8,5.4-14.2,11.9-14.2c4,0,6.8,1.9,8,4h0.1V12.3H206.5z M201.7,35.4c0-0.6-0.1-1.4-0.2-2 c-0.7-3.1-3.3-5.6-6.9-5.6c-5,0-7.9,4.4-7.9,10.2c0,5.3,2.6,9.8,7.8,9.8c3.2,0,6.2-2.1,7.1-5.7c0.2-0.7,0.2-1.3,0.2-2.1V35.4z"/><path fill="#FFFFFF" d="M42.8,64c0.1,1.6-1.1,2.9-3.1,2.9c-1.7,0-2.9-1.3-2.9-2.9c0-1.7,1.3-3,3-3C41.7,61,42.8,62.3,42.8,64z M37.4,97.8V71.4h4.8v26.4H37.4z"/><path fill="#FFFFFF" d="M47.5,78.6c0-2.7-0.1-5-0.2-7.1h4.3l0.3,4.4h0.1c1.3-2.5,4.4-5,8.8-5c3.7,0,9.4,2.2,9.4,11.2v15.8h-4.8 V82.6c0-4.3-1.6-7.8-6.1-7.8c-3.2,0-5.6,2.2-6.5,4.9c-0.2,0.6-0.3,1.4-0.3,2.2v15.9h-4.8V78.6z"/><path fill="#FFFFFF" d="M84,61.6c2.9-0.4,6.3-0.8,10.1-0.8c6.8,0,11.7,1.6,14.9,4.6c3.3,3,5.2,7.3,5.2,13.2c0,6-1.9,10.9-5.3,14.3 c-3.4,3.4-9.1,5.3-16.3,5.3c-3.4,0-6.2-0.2-8.6-0.4V61.6z M88.8,94.1c1.2,0.2,3,0.3,4.8,0.3c10.2,0,15.7-5.7,15.7-15.6 c0.1-8.7-4.9-14.2-14.9-14.2c-2.5,0-4.3,0.2-5.6,0.5V94.1z"/><path fill="#FFFFFF" d="M132.1,97.8l-0.4-3.3h-0.2c-1.5,2.1-4.3,3.9-8.1,3.9c-5.4,0-8.1-3.8-8.1-7.6c0-6.4,5.7-9.9,15.9-9.8v-0.5 c0-2.2-0.6-6.1-6-6.1c-2.5,0-5,0.8-6.9,2l-1.1-3.2c2.2-1.4,5.4-2.3,8.7-2.3c8.1,0,10.1,5.5,10.1,10.8v9.9c0,2.3,0.1,4.5,0.4,6.3 H132.1z M131.4,84.4c-5.3-0.1-11.2,0.8-11.2,5.9c0,3.1,2.1,4.6,4.5,4.6c3.4,0,5.6-2.2,6.4-4.4c0.2-0.5,0.3-1,0.3-1.5V84.4z"/><path fill="#FFFFFF" d="M146.6,63.9v7.6h6.9v3.7h-6.9v14.2c0,3.3,0.9,5.1,3.6,5.1c1.3,0,2.2-0.2,2.8-0.3l0.2,3.6 c-0.9,0.4-2.4,0.7-4.3,0.7c-2.2,0-4-0.7-5.2-2c-1.4-1.4-1.9-3.8-1.9-6.9V75.1h-4.1v-3.7h4.1v-6.3L146.6,63.9z"/><path fill="#FFFFFF" d="M171.4,97.8l-0.4-3.3h-0.2c-1.5,2.1-4.3,3.9-8.1,3.9c-5.4,0-8.1-3.8-8.1-7.6c0-6.4,5.7-9.9,15.9-9.8v-0.5 c0-2.2-0.6-6.1-6-6.1c-2.5,0-5,0.8-6.9,2l-1.1-3.2c2.2-1.4,5.4-2.3,8.7-2.3c8.1,0,10.1,5.5,10.1,10.8v9.9c0,2.3,0.1,4.5,0.4,6.3 H171.4z M170.7,84.4c-5.3-0.1-11.2,0.8-11.2,5.9c0,3.1,2.1,4.6,4.5,4.6c3.4,0,5.6-2.2,6.4-4.4c0.2-0.5,0.3-1,0.3-1.5V84.4z"/></g></g></a></g><a href="https://ourworldindata.org/grapher/global-plastic-fate" target="_blank"><text font-size="25.20" x="15.0" y="35.2" fill="#555"><tspan x="15" y="35.160000000000004">Global plastic waste by disposal</tspan></text></a><text font-size="14.40" x="15.0" y="53.7" fill="#666"><tspan x="15" y="53.72">Estimated share of global plastic waste by disposal method. </tspan></text></g><g class="StackedArea"><defs><clipPath id="boundsClip-101"><rect x="61.634" y="0" width="820" height="959.8"></rect></clipPath></defs><g class="AxisBoxView"><g class="HorizontalAxis"><text x="61.6" y="556.5" fill="#666" text-anchor="middle" font-size="16.2">1980</text><text x="157.5" y="556.5" fill="#666" text-anchor="middle" font-size="16.2">1985</text><text x="253.4" y="556.5" fill="#666" text-anchor="middle" font-size="16.2">1990</text><text x="349.3" y="556.5" fill="#666" text-anchor="middle" font-size="16.2">1995</text><text x="445.2" y="556.5" fill="#666" text-anchor="middle" font-size="16.2">2000</text><text x="541.1" y="556.5" fill="#666" text-anchor="middle" font-size="16.2">2005</text><text x="637" y="556.5" fill="#666" text-anchor="middle" font-size="16.2">2010</text><text x="732.9" y="556.5" fill="#666" text-anchor="middle" font-size="16.2">2015</text></g><g class="VerticalAxis"><text x="56.63" y="535.3" fill="#666" dominant-baseline="middle" text-anchor="end" font-size="16.2">0%</text><text x="56.63" y="443.6" fill="#666" dominant-baseline="middle" text-anchor="end" font-size="16.2">20%</text><text x="56.63" y="351.8" fill="#666" dominant-baseline="middle" text-anchor="end" font-size="16.2">40%</text><text x="56.63" y="260.1" fill="#666" dominant-baseline="middle" text-anchor="end" font-size="16.2">60%</text><text x="56.63" y="168.3" fill="#666" dominant-baseline="middle" text-anchor="end" font-size="16.2">80%</text><text x="56.63" y="76.6" fill="#666" dominant-baseline="middle" text-anchor="end" font-size="16.2">100%</text></g><g class="AxisGridLines"><line x1="61.63" y1="535.3" x2="732.90" y2="535.3" stroke="#ccc"></line><line x1="61.63" y1="443.6" x2="732.90" y2="443.6" stroke="#ddd" stroke-dasharray="3,2"></line><line x1="61.63" y1="351.8" x2="732.90" y2="351.8" stroke="#ddd" stroke-dasharray="3,2"></line><line x1="61.63" y1="260.1" x2="732.90" y2="260.1" stroke="#ddd" stroke-dasharray="3,2"></line><line x1="61.63" y1="168.3" x2="732.90" y2="168.3" stroke="#ddd" stroke-dasharray="3,2"></line><line x1="61.63" y1="76.6" x2="732.90" y2="76.6" stroke="#ddd" stroke-dasharray="3,2"></line></g></g><g clip-path="url(#boundsClip-101)"><g class="HeightedLegend clickable"><g class="legendMark"><rect x="732.905" y="114.55" width="90.62" height="13.5" fill="#fff" opacity="0"></rect><text font-size="13.50" x="737.9" y="125.4" fill="#2a939b"><tspan x="737.905" y="125.35000000000001">Recycled</tspan></text></g><g class="legendMark"><rect x="732.905" y="217.75" width="102.095" height="13.5" fill="#fff" opacity="0"></rect><text font-size="13.50" x="737.9" y="228.6" fill="#e6332e"><tspan x="737.905" y="228.55">Incinerated</tspan></text></g><g class="legendMark"><rect x="732.905" y="402.45" width="95.885" height="13.5" fill="#fff" opacity="0"></rect><text font-size="13.50" x="737.9" y="413.3" fill="#818282"><tspan x="737.905" y="413.25">Discarded</tspan></text></g></g><g class="Areas"><rect x="61.634" y="76.6" width="671.271" height="458.69999999999993" opacity="0" fill="rgba(255,255,255,0)"></rect><path stroke-linecap="round" d="M61.6 76.6L80.8 84.4L100 87.6L119.2 90.8L138.4 94L157.5 97.2L176.7 100.5L195.9 103.7L215.1 109.6L234.2 116L253.4 122.5L272.6 128.9L291.8 135.3L311 141.7L330.1 148.2L349.3 154.6L368.5 161L387.7 167.4L406.9 173.8L426 180.3L445.2 186.7L464.4 193.1L483.6 199.5L502.8 206L521.9 212.4L541.1 218.8L560.3 225.2L579.5 231.6L598.7 238.1L617.8 244.5L637 250.9L656.2 257.3L675.4 263.7L694.5 270.2L713.7 276.6L732.9 283L732.905 535.3L61.634 535.3" fill="#818282" fill-opacity="0.7" class="Discarded_0-area"></path><path stroke-linecap="round" d="M61.6 76.6L80.8 76.6L100 76.6L119.2 76.6L138.4 76.6L157.5 76.6L176.7 76.6L195.9 76.6L215.1 79.4L234.2 82.6L253.4 85.8L272.6 89L291.8 92.2L311 95.4L330.1 98.6L349.3 101.8L368.5 105L387.7 108.3L406.9 111.5L426 114.7L445.2 117.9L464.4 121.1L483.6 124.3L502.8 127.5L521.9 130.7L541.1 133.9L560.3 137.1L579.5 140.4L598.7 143.6L617.8 146.8L637 150L656.2 153.2L675.4 156.4L694.5 159.6L713.7 162.8L732.9 166L732.9 283L713.7 276.6L694.5 270.2L675.4 263.7L656.2 257.3L637 250.9L617.8 244.5L598.7 238.1L579.5 231.6L560.3 225.2L541.1 218.8L521.9 212.4L502.8 206L483.6 199.5L464.4 193.1L445.2 186.7L426 180.3L406.9 173.8L387.7 167.4L368.5 161L349.3 154.6L330.1 148.2L311 141.7L291.8 135.3L272.6 128.9L253.4 122.5L234.2 116L215.1 109.6L195.9 103.7L176.7 100.5L157.5 97.2L138.4 94L119.2 90.8L100 87.6L80.8 84.4L61.6 76.6" fill="#e6332e" fill-opacity="0.7" class="Incinerated_0-area"></path><path stroke-linecap="round" d="M61.6 76.6L80.8 76.6L100 76.6L119.2 76.6L138.4 76.6L157.5 76.6L176.7 76.6L195.9 76.6L215.1 76.6L234.2 76.6L253.4 76.6L272.6 76.6L291.8 76.6L311 76.6L330.1 76.6L349.3 76.6L368.5 76.6L387.7 76.6L406.9 76.6L426 76.6L445.2 76.6L464.4 76.6L483.6 76.6L502.8 76.6L521.9 76.6L541.1 76.6L560.3 76.6L579.5 76.6L598.7 76.6L617.8 76.6L637 76.6L656.2 76.6L675.4 76.6L694.5 76.6L713.7 76.6L732.9 76.6L732.9 166L713.7 162.8L694.5 159.6L675.4 156.4L656.2 153.2L637 150L617.8 146.8L598.7 143.6L579.5 140.4L560.3 137.1L541.1 133.9L521.9 130.7L502.8 127.5L483.6 124.3L464.4 121.1L445.2 117.9L426 114.7L406.9 111.5L387.7 108.3L368.5 105L349.3 101.8L330.1 98.6L311 95.4L291.8 92.2L272.6 89L253.4 85.8L234.2 82.6L215.1 79.4L195.9 76.6L176.7 76.6L157.5 76.6L138.4 76.6L119.2 76.6L100 76.6L80.8 76.6L61.6 76.6" fill="#2a939b" fill-opacity="0.7" class="Recycled_0-area"></path><path stroke-linecap="round" d="M61.6 76.6L80.8 84.4L100 87.6L119.2 90.8L138.4 94L157.5 97.2L176.7 100.5L195.9 103.7L215.1 109.6L234.2 116L253.4 122.5L272.6 128.9L291.8 135.3L311 141.7L330.1 148.2L349.3 154.6L368.5 161L387.7 167.4L406.9 173.8L426 180.3L445.2 186.7L464.4 193.1L483.6 199.5L502.8 206L521.9 212.4L541.1 218.8L560.3 225.2L579.5 231.6L598.7 238.1L617.8 244.5L637 250.9L656.2 257.3L675.4 263.7L694.5 270.2L713.7 276.6L732.9 283" stroke="rgb(108, 109, 109)" stroke-opacity="0.7" stroke-width="0.5" fill="none" class="Discarded_0-border"></path><path stroke-linecap="round" d="M61.6 76.6L80.8 76.6L100 76.6L119.2 76.6L138.4 76.6L157.5 76.6L176.7 76.6L195.9 76.6L215.1 79.4L234.2 82.6L253.4 85.8L272.6 89L291.8 92.2L311 95.4L330.1 98.6L349.3 101.8L368.5 105L387.7 108.3L406.9 111.5L426 114.7L445.2 117.9L464.4 121.1L483.6 124.3L502.8 127.5L521.9 130.7L541.1 133.9L560.3 137.1L579.5 140.4L598.7 143.6L617.8 146.8L637 150L656.2 153.2L675.4 156.4L694.5 159.6L713.7 162.8L732.9 166" stroke="rgb(192, 43, 38)" stroke-opacity="0.7" stroke-width="0.5" fill="none" class="Incinerated_0-border"></path><path stroke-linecap="round" d="M61.6 76.6L80.8 76.6L100 76.6L119.2 76.6L138.4 76.6L157.5 76.6L176.7 76.6L195.9 76.6L215.1 76.6L234.2 76.6L253.4 76.6L272.6 76.6L291.8 76.6L311 76.6L330.1 76.6L349.3 76.6L368.5 76.6L387.7 76.6L406.9 76.6L426 76.6L445.2 76.6L464.4 76.6L483.6 76.6L502.8 76.6L521.9 76.6L541.1 76.6L560.3 76.6L579.5 76.6L598.7 76.6L617.8 76.6L637 76.6L656.2 76.6L675.4 76.6L694.5 76.6L713.7 76.6L732.9 76.6" stroke="rgb(35, 123, 130)" stroke-opacity="0.7" stroke-width="0.5" fill="none" class="Recycled_0-border"></path></g></g></g><g style="fill: #777;" class="SourcesFooter"><g style="fill: #777;" class="clickable"><text font-size="12.60" x="15.0" y="581.6"><tspan x="15" y="581.58">Source: Geyer et al. (2017)</tspan></text></g><text font-size="12.60" x="775.4" y="581.6"><tspan x="775.402" y="581.58"><a style="fill: #777;" class="cclogo" href="http://creativecommons.org/licenses/by-sa/4.0/deed.en_US" target="_blank">CC BY-SA</a></tspan></text></g></g></svg>
